X:65
T:Rowles. JJo4.065, The
B:J.Johnson Choice Collection Vol 4, 1748
Z:vmp.Ruairidh Greig 2014 www.village-music-project.org.uk
M:C|
L:1/8
Q:1/4=100
K:Em
E/E/E GB e>feF|G/G/G Bd g>age|E/E/E GB e>fge|(af)(ge) (f^d)e2:|
|:f|(gd)Bd g/g/g dB|(ecA)c e/e/e cA|B(GEG) B/B/B GE|(3cBA (3BAG {G}"tr"F2E2:|

